common/src/main/resources/glyphs/plugins/resharper/FeaturesInspections/ExcludeLibraryElement.svg

<svg xmlns="http://www.w3.org/2000/svg" width="16" height="16" fill="#E57373" data-big="true" viewBox="0 0 24 24"><path d="M9 2a2 2 0 0 0-2 2v12a2 2 0 0 0 2 2h10a2 2 0 0 0 2-2V4a2 2 0 0 0-2-2h-5v5l-2-1.5L10 7V2zM3 6v14a2 2 0 0 0 2 2h12v-2H5V6zm11.59 4.17L16 11.59l1.41-1.42 1.42 1.42L17.41 13l1.42 1.41-1.42 1.42L16 14.41l-1.41 1.42-1.42-1.42L14.59 13l-1.42-1.41z"/></svg>

<!--
  - The MIT License (MIT)
  -
  - Copyright (c) 2015-2024 Elior "Mallowigi" Boukhobza
  -
  - Permission is hereby granted, free of charge, to any person obtaining a copy
  - of this software and associated documentation files (the "Software"), to deal
  - in the Software without restriction, including without limitation the rights
  - to use, copy, modify, merge, publish, distribute, sublicense, and/or sell
  - copies of the Software, and to permit persons to whom the Software is
  - furnished to do so, subject to the following conditions:
  -
  - The above copyright notice and this permission notice shall be included in all
  - copies or substantial portions of the Software.
  -
  - THE SOFTWARE IS PROVIDED "AS IS", WITHOUT WARRANTY OF ANY KIND, EXPRESS OR
  - IMPLIED, INCLUDING BUT NOT LIMITED TO THE WARRANTIES OF MERCHANTABILITY,
  - FITNESS FOR A PARTICULAR PURPOSE AND NONINFRINGEMENT. IN NO EVENT SHALL THE
  - AUTHORS OR COPYRIGHT HOLDERS BE LIABLE FOR ANY CLAIM, DAMAGES OR OTHER
  - LIABILITY, WHETHER IN AN ACTION OF CONTRACT, TORT OR OTHERWISE, ARISING FROM,
  - OUT OF OR IN CONNECTION WITH THE SOFTWARE OR THE USE OR OTHER DEALINGS IN THE
  - SOFTWARE.
  -->


<svg data-big="true" xmlns="http://www.w3.org/2000/svg" version="1.1" width="16px" height="16px" viewBox="0 0 24 24"
     fill="#E57373">
  <path
    d="M9,2A2,2 0 0,0 7,4V16A2,2 0 0,0 9,18H19A2,2 0 0,0 21,16V4A2,2 0 0,0 19,2H14V7L12,5.5L10,7V2H9M3,6V20A2,2 0 0,0 5,22H17V20H5V6H3M14.59,10.17L16,11.59L17.41,10.17L18.83,11.59L17.41,13L18.83,14.41L17.41,15.83L16,14.41L14.59,15.83L13.17,14.41L14.59,13L13.17,11.59L14.59,10.17Z"/>
</svg>
